src/assets/icons/cars/new_car_ribbon.svg

<svg width="48" height="48" viewBox="0 0 48 48" fill="none" xmlns="http://www.w3.org/2000/svg">
<path fill-rule="evenodd" clip-rule="evenodd" d="M38 31.8516C38 32.0716 37.821 31.9996 37.602 31.9996H36.083C35.562 30.9996 34.605 30.6246 33.5 30.6246C32.494 30.6246 31.608 31.1886 31.063 31.9506C31.041 31.9486 31.022 31.9996 31 31.9996H28V20.9996H29.025C29.342 20.9996 29.637 21.2666 29.836 21.5126L33.011 25.4946L33.208 25.7106C33.431 25.8706 33.675 26.0096 33.931 26.0936L37.492 27.2896C37.796 27.3906 38 27.6816 38 28.0016V31.8516ZM33.5 34.7496C32.949 34.7496 32.5 34.3016 32.5 33.7496C32.5 33.1986 32.949 32.7496 33.5 32.7496C34.051 32.7496 34.5 33.1986 34.5 33.7496C34.5 34.3016 34.051 34.7496 33.5 34.7496ZM24 31.9996H26V20.9996H24V31.9996ZM18 31.9996C17.978 31.9996 17.959 32.0116 17.937 32.0126C17.392 31.2516 16.506 30.6246 15.5 30.6246C14.395 30.6246 13.438 30.9996 12.917 31.9996H10.743C10.333 31.9996 10 31.9166 10 31.5066V28.0016C10 27.6796 10.204 27.3936 10.422 27.3176L15.155 26.1916C15.242 26.1626 15.312 26.1376 15.486 25.9996H19C19.552 25.9996 20 25.5526 20 24.9996C20 24.4476 19.552 23.9996 19 23.9996H17.611C18.247 23.3796 19.056 22.4596 20.113 21.4176C20.305 21.2286 20.56 20.9996 20.831 20.9996H22V31.9996H18ZM15.5 34.7496C14.949 34.7496 14.5 34.3016 14.5 33.7496C14.5 33.1986 14.949 32.7496 15.5 32.7496C16.051 32.7496 16.5 33.1986 16.5 33.7496C16.5 34.3016 16.051 34.7496 15.5 34.7496ZM18.12 12.7826C18.625 12.2786 19.295 11.9996 20.009 11.9996C20.723 11.9996 21.394 12.2786 21.899 12.7826C22.566 13.4506 23.041 15.8886 23.248 17.9116C21.226 17.7056 18.789 17.2306 18.12 16.5616C17.078 15.5196 17.078 13.8246 18.12 12.7826ZM28.101 12.7826C28.606 12.2786 29.277 11.9996 29.991 11.9996C30.705 11.9996 31.375 12.2786 31.88 12.7826C32.922 13.8246 32.922 15.5196 31.88 16.5616C31.213 17.2296 28.774 17.7046 26.752 17.9106C26.958 15.8896 27.432 13.4516 28.101 12.7826ZM38.125 25.3996L34.561 24.2106C34.526 24.1996 34.493 24.1856 34.461 24.1696L31.391 20.3786C31.021 19.9206 30.529 19.6056 29.987 19.4236C31.318 19.1196 32.607 18.6636 33.294 17.9766C35.116 16.1546 35.116 13.1906 33.294 11.3686C32.412 10.4866 31.239 9.99963 29.991 9.99963C28.743 9.99963 27.569 10.4866 26.687 11.3686C25.789 12.2666 25.283 14.1916 25 15.8976C24.717 14.1906 24.211 12.2666 23.313 11.3686C22.431 10.4866 21.257 9.99963 20.009 9.99963C18.761 9.99963 17.588 10.4866 16.706 11.3686C14.884 13.1906 14.884 16.1546 16.706 17.9766C17.377 18.6476 18.624 19.0986 19.923 19.4026C19.472 19.5446 19.054 19.7786 18.709 20.1186C16.507 22.2886 15.246 23.5106 14.653 24.0706C14.494 24.1296 14.36 24.2286 14.251 24.3546L9.875 25.3956C8.754 25.7696 8 26.8166 8 28.0016V31.5066C8 33.0196 9.23 33.9996 10.743 33.9996H12.551C12.79 35.9996 14.017 36.6246 15.5 36.6246C17.069 36.6246 18.345 35.5356 18.475 33.9996H30.525C30.655 35.5356 31.931 36.6246 33.5 36.6246C34.983 36.6246 36.21 35.9996 36.449 33.9996H37.602C38.924 33.9996 40 33.1736 40 31.8516V28.0016C40 26.8186 39.246 25.7736 38.125 25.3996Z" fill="#253238"/>
</svg>

<svg width="48" height="48" viewBox="0 0 48 48" fill="none" xmlns="http://www.w3.org/2000/svg"><path fill-rule="evenodd" clip-rule="evenodd" d="M38 31.852c0 .22-.179.148-.398.148h-1.519c-.521-1-1.478-1.375-2.583-1.375-1.006 0-1.892.564-2.437 1.326-.022-.002-.041.049-.063.049h-3V21h1.025c.317 0 .612.267.811.513l3.175 3.982.197.216c.223.16.467.299.723.383l3.561 1.196a.75.75 0 01.508.712v3.85zm-4.5 2.898a1.001 1.001 0 010-2 1.001 1.001 0 010 2zM24 32h2V21h-2v11zm-6 0c-.022 0-.041.012-.063.013-.545-.761-1.431-1.388-2.437-1.388-1.105 0-2.062.375-2.583 1.375h-2.174c-.41 0-.743-.083-.743-.493v-3.505c0-.322.204-.608.422-.684l4.733-1.126c.087-.03.157-.054.331-.192H19a1 1 0 100-2h-1.389c.636-.62 1.445-1.54 2.502-2.582.192-.19.447-.418.718-.418H22v11h-4zm-2.5 2.75a1.001 1.001 0 010-2 1.001 1.001 0 010 2zm2.62-21.967A2.657 2.657 0 0120.009 12a2.66 2.66 0 011.89.783c.667.668 1.142 3.106 1.349 5.129-2.022-.206-4.459-.681-5.128-1.35a2.675 2.675 0 010-3.78zm9.981 0a2.66 2.66 0 011.89-.783 2.675 2.675 0 011.889 4.562c-.667.668-3.106 1.143-5.128 1.349.206-2.021.68-4.46 1.349-5.128zM38.125 25.4l-3.564-1.19a.677.677 0 01-.1-.04l-3.07-3.791a3.018 3.018 0 00-1.404-.955c1.331-.304 2.62-.76 3.307-1.447a4.678 4.678 0 000-6.608 4.641 4.641 0 00-3.303-1.37 4.644 4.644 0 00-3.304 1.37c-.898.898-1.404 2.823-1.687 4.529-.283-1.707-.789-3.631-1.687-4.53A4.644 4.644 0 0020.009 10a4.641 4.641 0 00-3.303 1.369 4.678 4.678 0 000 6.608c.671.67 1.918 1.122 3.217 1.426a2.993 2.993 0 00-1.214.716 321.119 321.119 0 01-4.056 3.952.982.982 0 00-.402.284l-4.376 1.04A2.743 2.743 0 008 28.003v3.505C8 33.02 9.23 34 10.743 34h1.808c.239 2 1.466 2.625 2.949 2.625 1.569 0 2.845-1.09 2.975-2.625h12.05c.13 1.536 1.406 2.625 2.975 2.625 1.483 0 2.71-.625 2.949-2.625h1.153C38.924 34 40 33.174 40 31.852v-3.85a2.74 2.74 0 00-1.875-2.602z" fill="#253238"/></svg>
